X: 7496
T: Coalminer's, The
R: reel
M: 4/4
K: Gmajor
DGGG DGAG|dGBG AG (3EFG|DGGF GG (3Bcd|(3gfe dB AG (3EFG|
DGGG DGAG|dGBG AG (3EFG|DGGF GG (3Bcd|gedB G3E|
DGGG EGGG|dGBG AG (3EFG|DGGF G2 (3Bcd|gedB AGEG|
DGGG ~E3G|DGGG AGEG|DGGF GG (3Bcd|{f}gedB G2z2|
|:ggge dBge|dGGG AG (3EFG|ggge dega|bagb aaga|
bggg ag (3efg|dGBG AG (3EFG|DGGF G2(3Bcd|(3gfe dB G4:|

